icons/Jar.svg

<svg width="24" height="24" viewBox="0 0 24 24" fill="none" xmlns="http://www.w3.org/2000/svg">
<path fill-rule="evenodd" clip-rule="evenodd" d="M16.5,2.25c1.2426,0 2.25,1.00736 2.25,2.25c0,0.93444 -0.5696,1.73583 -1.3806,2.07588l1.8306,2.44079c0.357,0.47601 0.55,1.05493 0.55,1.65003v8.3333c0,1.5188 -1.2312,2.75 -2.75,2.75h-10c-1.51878,0 -2.75,-1.2312 -2.75,-2.75v-8.3333c0,-0.5951 0.19299,-1.17402 0.55,-1.65003l1.83059,-2.44079c-0.81096,-0.34005 -1.38059,-1.14144 -1.38059,-2.07588c0,-1.24264 1.00736,-2.25 2.25,-2.25zM15,6.75h-6c-0.39345,0 -0.76393,0.18524 -1,0.5l-2,2.66667c-0.16228,0.21633 -0.25,0.47953 -0.25,0.75003v8.3333c0,0.6904 0.55964,1.25 1.25,1.25h10c0.6904,0 1.25,-0.5596 1.25,-1.25v-8.3333c0,-0.2705 -0.0877,-0.5337 -0.25,-0.75003l-2,-2.66667c-0.2361,-0.31476 -0.6066,-0.5 -1,-0.5zM15,5.25h1.5c0.4142,0 0.75,-0.33579 0.75,-0.75c0,-0.41421 -0.3358,-0.75 -0.75,-0.75h-9c-0.41421,0 -0.75,0.33579 -0.75,0.75c0,0.41421 0.33579,0.75 0.75,0.75h1.5z" fill="#002B51"/>
</svg>

<svg width="24" height="24" viewBox="0 0 24 24" fill="none" xmlns="http://www.w3.org/2000/svg">
<path fill-rule="evenodd" clip-rule="evenodd" d="M7.5 2.25C6.25736 2.25 5.25 3.25736 5.25 4.5C5.25 5.43444 5.81963 6.23583 6.63059 6.57588L4.8 9.01667C4.44299 9.49268 4.25 10.0716 4.25 10.6667V19C4.25 20.5188 5.48122 21.75 7 21.75H17C18.5188 21.75 19.75 20.5188 19.75 19V10.6667C19.75 10.0716 19.557 9.49268 19.2 9.01667L17.3694 6.57588C18.1804 6.23583 18.75 5.43444 18.75 4.5C18.75 3.25736 17.7426 2.25 16.5 2.25H7.5ZM15 6.75H9C8.60655 6.75 8.23607 6.93524 8 7.25L6 9.91667C5.83772 10.133 5.75 10.3962 5.75 10.6667V19C5.75 19.6904 6.30964 20.25 7 20.25H17C17.6904 20.25 18.25 19.6904 18.25 19V10.6667C18.25 10.3962 18.1623 10.133 18 9.91667L16 7.25C15.7639 6.93524 15.3934 6.75 15 6.75ZM15 5.25H16.5C16.9142 5.25 17.25 4.91421 17.25 4.5C17.25 4.08579 16.9142 3.75 16.5 3.75H7.5C7.08579 3.75 6.75 4.08579 6.75 4.5C6.75 4.91421 7.08579 5.25 7.5 5.25H9H15Z" fill="#002B51"/>
</svg>
